.config/awesome/icons-18px/net.svg

<?xml version="1.0" encoding="UTF-8" standalone="no"?>
<svg
   xmlns:dc="http://purl.org/dc/elements/1.1/"
   xmlns:cc="http://creativecommons.org/ns#"
   xmlns:rdf="http://www.w3.org/1999/02/22-rdf-syntax-ns#"
   xmlns:svg="http://www.w3.org/2000/svg"
   xmlns="http://www.w3.org/2000/svg"
   version="1.1"
   id="svg2"
   viewBox="0 0 18 18"
   height="18"
   width="18">
  <defs
     id="defs4" />
  <metadata
     id="metadata7">
    <rdf:RDF>
      <cc:Work
         rdf:about="">
        <dc:format>image/svg+xml</dc:format>
        <dc:type
           rdf:resource="http://purl.org/dc/dcmitype/StillImage" />
        <dc:title />
      </cc:Work>
    </rdf:RDF>
  </metadata>
  <g
     transform="translate(0,-1034.3622)"
     id="layer1">
    <path
       id="path27758"
       transform="translate(0,1034.3622)"
       d="m 6,5 0,1 6,0 0,-1 z m 6,1 0,1 1,0 0,-1 z M 6,6 5,6 5,7 6,7 Z m 1,1 0,1 4,0 0,-1 z m 4,1 0,1 1,0 0,-1 z M 7,8 6,8 6,9 7,9 Z m 1,1 0,1 2,0 0,-1 z m 2,1 0,1 1,0 0,-1 z m -2,0 -1,0 0,1 1,0 z m 0,2 0,1 2,0 0,-1 z"
       style="color:#000000;clip-rule:nonzero;display:inline;overflow:visible;visibility:visible;opacity:1;isolation:auto;mix-blend-mode:normal;color-interpolation:sRGB;color-interpolation-filters:linearRGB;solid-color:#000000;solid-opacity:1;fill:#eee8d5;fill-opacity:1;fill-rule:evenodd;stroke:none;stroke-width:0.35433072;stroke-linecap:butt;stroke-linejoin:round;stroke-miterlimit:4;stroke-dasharray:none;stroke-dashoffset:0;stroke-opacity:1;marker:none;color-rendering:auto;image-rendering:auto;shape-rendering:auto;text-rendering:auto;enable-background:accumulate" />
  </g>
</svg>

<?xml version="1.0" encoding="UTF-8" standalone="no"?>
<!-- Created with Inkscape (http://www.inkscape.org/) -->

<svg
   xmlns:dc="http://purl.org/dc/elements/1.1/"
   xmlns:cc="http://creativecommons.org/ns#"
   xmlns:rdf="http://www.w3.org/1999/02/22-rdf-syntax-ns#"
   xmlns:svg="http://www.w3.org/2000/svg"
   xmlns="http://www.w3.org/2000/svg"
   xmlns:sodipodi="http://sodipodi.sourceforge.net/DTD/sodipodi-0.dtd"
   xmlns:inkscape="http://www.inkscape.org/namespaces/inkscape"
   width="18"
   height="18"
   viewBox="0 0 18 18"
   id="svg2"
   version="1.1"
   inkscape:version="0.91 r13725"
   inkscape:export-filename="/home/rohieb/.config/awesome/icons/net.png"
   inkscape:export-xdpi="90"
   inkscape:export-ydpi="90"
   sodipodi:docname="net.svg">
  <defs
     id="defs4" />
  <sodipodi:namedview
     id="base"
     pagecolor="#ffffff"
     bordercolor="#666666"
     borderopacity="1.0"
     inkscape:pageopacity="0.0"
     inkscape:pageshadow="2"
     inkscape:zoom="0.35"
     inkscape:cx="375"
     inkscape:cy="520"
     inkscape:document-units="px"
     inkscape:current-layer="layer1"
     showgrid="true"
     units="px"
     inkscape:snap-smooth-nodes="false"
     inkscape:object-nodes="true">
    <inkscape:grid
       type="xygrid"
       id="grid83507"
       units="px"
       spacingx="1"
       spacingy="1"
       visible="true" />
  </sodipodi:namedview>
  <metadata
     id="metadata7">
    <rdf:RDF>
      <cc:Work
         rdf:about="">
        <dc:format>image/svg+xml</dc:format>
        <dc:type
           rdf:resource="http://purl.org/dc/dcmitype/StillImage" />
        <dc:title></dc:title>
      </cc:Work>
    </rdf:RDF>
  </metadata>
  <g
     inkscape:label="Layer 1"
     inkscape:groupmode="layer"
     id="layer1"
     transform="translate(0,-1034.3622)">
    <path
       style="color:#000000;clip-rule:nonzero;display:inline;overflow:visible;visibility:visible;opacity:1;isolation:auto;mix-blend-mode:normal;color-interpolation:sRGB;color-interpolation-filters:linearRGB;solid-color:#000000;solid-opacity:1;fill:#eee8d5;fill-opacity:1;fill-rule:evenodd;stroke:none;stroke-width:0.35433072;stroke-linecap:butt;stroke-linejoin:round;stroke-miterlimit:4;stroke-dasharray:none;stroke-dashoffset:0;stroke-opacity:1;marker:none;color-rendering:auto;image-rendering:auto;shape-rendering:auto;text-rendering:auto;enable-background:accumulate"
       d="M 6 5 L 6 6 L 7 6 L 8 6 L 9 6 L 10 6 L 11 6 L 12 6 L 12 5 L 11 5 L 10 5 L 9 5 L 8 5 L 7 5 L 6 5 z M 12 6 L 12 7 L 13 7 L 13 6 L 12 6 z M 6 6 L 5 6 L 5 7 L 6 7 L 6 6 z M 7 7 L 7 8 L 8 8 L 9 8 L 10 8 L 11 8 L 11 7 L 10 7 L 9 7 L 8 7 L 7 7 z M 11 8 L 11 9 L 12 9 L 12 8 L 11 8 z M 7 8 L 6 8 L 6 9 L 7 9 L 7 8 z M 8 9 L 8 10 L 9 10 L 10 10 L 10 9 L 9 9 L 8 9 z M 10 10 L 10 11 L 11 11 L 11 10 L 10 10 z M 8 10 L 7 10 L 7 11 L 8 11 L 8 10 z M 8 12 L 8 13 L 9 13 L 10 13 L 10 12 L 9 12 L 8 12 z "
       transform="translate(0,1034.3622)"
       id="path27758" />
  </g>
</svg>
